X:1
T:Arie Antiche
T:Un certo non so che (Dell'opera L'Atenaide)
T:Un certo non so che
T:Antonio Vivaldi (1678 -1741) Alessandro Parisotti (1853 -1913)
T:(Arie Antiche) Arietta
T:High voices Dell'opera L'Atenaide (1728) Apostolo Zeno (1668 -1750)
T:Creative Commons copyright waiver (CC0 1.0 Universal)
T:Creative Commons copyright waiver (CC0 1.0 Universal)
T:Creative Commons copyright waiver (CC0 1.0 Universal)
T:Creative Commons copyright waiver (CC0 1.0 Universal)
T:Creative Commons copyright waiver (CC0 1.0 Universal)
T:Creative Commons copyright waiver (CC0 1.0 Universal)
T:Creative Commons copyright waiver (CC0 1.0 Universal)
T:Creative Commons copyright waiver (CC0 1.0 Universal)
T:Creative Commons copyright waiver (CC0 1.0 Universal)
T:Creative Commons copyright waiver (CC0 1.0 Universal)
C:Antonio Vivaldi (1678 -1741)
Z:Apostolo Zeno (1668 -1750)
Z:Creative Commons copyright waiver (CC0 1.0 Universal)
%%score ( 1 2 ) { ( 3 5 7 ) | ( 4 6 ) }
L:1/8
Q:1/4=69
M:2/4
K:C
V:1 treble nm="Voice."
V:2 treble 
V:3 treble nm="Piano."
V:5 treble 
V:7 treble 
V:4 bass 
V:6 bass 
V:1
"^Con moto ed affetuoso (.)" z | z4 | z4[Q:1/4=45] | z4 |[Q:1/4=40] z2 z!p! E | %5
w: ||||Un|
!<(! ^G[Q:1/4=35] A!<)!!>(! (c ^D)!>)! | E2 z[Q:1/4=69]"^a tempo.""^cresc." E | F ^F!<(! G ^G!<)! | %8
w: cer- to non so|che mi|giun- gee pas- sail|
 A2 z B | c ^c d ^d |!f! e2 z!p! F | E3 F | E3 F | E3"^cresc." c | B3 c | B3!<(! c | %16
w: cor, mi|giun- gee pas- sail|cor, e|pur do-|lor non|è, e|pur do-|lor non|
 (B^c/^d/!<)!!f![Q:1/4=60]e)!p! A |[Q:1/4=55] (GB-B/)[Q:1/4=45]"^poco rit." z/[Q:1/4=50] (^F/>G/) | %18
w: è, _ _ _ do|lor _ _ non _|
 E2 z2 | z2 z!mf!"^Più  sostenuto."[Q:1/4=60] E |!<(! (E c)!<)!!>(! c!>)! A | %21
w: è.|Un|cer- to non so|
 (.G^F)[Q:1/4=65] z F |!<(! (^F d)!<)!!>(! d B!>)! | (A^G) z e/ c/ | %24
w: che, _ un|cer- to non so|che, * non so|
[Q:1/4=74]"^animato."!<(! (3(A/^G/A/) (3(B/A/B/)"^cresc." (3(c/B/c/)!<)! (3(d/c/d/) | %25
w: che * * mi * * pas- * * sail * *|
!f![Q:1/4=72] e2 z F | E3 F |"^cresc." E3 F | E3 e | %29
w: cor, e|pur do-|lor non|è, e|
!f![Q:1/4=68]!>(! (d/c/)[Q:1/4=66] (B/A/)!>)!!p![Q:1/4=60] F[Q:1/4=55]"^rit." z/ ^G/ | %30
w: pur _ do- * lor non|
 A2 z2[Q:1/4=50] | z2 z!p![Q:1/4=48]"^lento." A |!>(! ^G =G!>)! ^F E |!>(! B2- B!>)! z | %34
w: è.|Se|que- sto fos- sea-|mor? _|
[Q:1/4=56]"^a tempo."!f! e B/ G/!>(! ^F (E/!>)!c/) |!>(! B2- B!>)! z | %36
w: nel suo vo- ra- cear- *|dor,- *|
[Q:1/4=54]!>(! c A/!>)! F/ E (C/[Q:1/4=62]F/) |!<(! E ^D E!<)! ^F | %38
w: nel suo vo- ra- cear- *|dor,- già po- siin-|
 (G/>E/)!f! E[Q:1/4=60]{E} (^A/>E/) E |[Q:1/4=54] B2 z3/2!mf! G/ | %40
w: cau- * ta, po- * siil|piè! Se|
[Q:1/4=62]"^Sostenuto espress.."!<(! e d!<)! c!>(! (E/A/)!>)! | !>!A2 z[Q:1/4=66]"^a tempo." A | %42
w: que- sto fos- sea- *|mor? nel|
!f! d A f3/2!>(! d/ | (c2 B)!>)! z |[Q:1/4=62] !>!c E/ F/ G G | C!mf!!<(! ^C D!<)! E | %46
w: suo vo- ra- cear-|dor, _|nel suo vo- ra- cear-|dor già po- siin-|
!>(! (F/>D/)!>)! D!>(! d3/2!>)! ^G/ | A3/2[Q:1/4=56] A/!f!!>(! d3/2[Q:1/4=50] ^G/!>)! | A2 z2 | %49
w: cau- * ta, po- siil|piè, in- cau- tail|piè!|
 z4[Q:1/4=44] | z2!p! z[Q:1/4=38]"^molto ritard." E | ^G A (=c ^D) | %52
w: |Un|cer- to non so|
 E2 z[Q:1/4=69]"^a tempo."!mf! E | F ^F"^cresc." G ^G | A2 z B | c ^c d ^d | %56
w: che mi|giun- gee pas- sail|cor, mi|giun- gee pas- sail|
!f! e2 z!p![Q:1/4=67] F | E3 F | E3 F |"^cresc." E3 c | B3 c |!<(! B3 c | %62
w: cor, e|pur do-|lor non|è, e|pur do-|lor non|
 (B[Q:1/4=60]^c/^d/!<)!!f!e)!p![Q:1/4=58] A | (G[Q:1/4=55]B-[Q:1/4=48]"^poco rit."B/) z/ (^F/>G/) | %64
w: è, _ _ _ do-|lor _ _ non _|
[Q:1/4=40] E2 z2 |"^Più  sostenuto."[Q:1/4=60] z2[Q:1/4=64] z!mf! E |!<(! E c!<)!!>(! c!>)! A | %67
w: è.|Un|cer- to non so|
 ((!>!G^F)) z F |!<(! ((^F[Q:1/4=65] d))!<)!!>(! d B!>)! |[Q:1/4=68] ((A^G)) z e/ c/ | %70
w: che, _ un|cer- to non so|che, _ non so|
[Q:1/4=72]"^animato."!<(! (3(A/c/B/) (3(B/d/c/) (3(c/e/d/) (3(d/f/!<)!e/) |!f! e2 z!p! F | %72
w: che _ _ mi _ _ pas- * * sail * *|cor, e|
 E3[Q:1/4=68] F |"^cresc." E3 F |[Q:1/4=66]"^portando." E3 e | %75
w: pur do-|lor non|è, e|
!f!!>(! ((d/c/))[Q:1/4=64] ((B/A/))!>)!!p!!p! F[Q:1/4=60]"^rit." z/ ^G/ | A2 z[Q:1/4=66] E | %77
w: pur _ do- * lor non|è; mi|
!<(! F ^F G ^G!<)! | A2[Q:1/4=67] z"^cresc." B | c ^c d ^d |!f! e2 z[Q:1/4=62] ((e/"^dim."c/) | %81
w: giun- gee pas- sail|cor, mi|giun- gee pas- sail|cor, e _|
 !>!_B3 (c/d/) |!>(! !>!^G3 (A/!>)!=B/) | !>!E2-) E[Q:1/4=55]"^cresc." (e | %84
w: pur do- *|lor non _|è, * e|
 (!>!d/c/) (^G/A/) (!>!c/B/)) z/ E/ |[Q:1/4=50] (!>!f/e/) (^G/A/) (!>!c/B/) (A/G/) | %86
w: pur- * do- * lor _ non|è, _ do- * lor _ non _|
[Q:1/4=30]"^ritard."!>(! (f/e/) (d/c/)!>)!!p! (c/[Q:1/4=40]_B/) z/ ^G/ | A2 z2 | z4 | %89
w: è, _ do- * lor _ non|è!||
 z4[Q:1/4=35] | z4 | z4 |] %92
w: |||
V:2
 x | x4 | x4 | x4 | x4 | x4 | x4 | x4 | x4 | x4 | x4 | x4 | x4 | x4 | x4 | x4 | x4 | x4 | x4 | x4 | %20
 x4 | x4 | x4 | x3 (e/c/) | x4 | x4 | x4 | x4 | x4 | x4 | x4 | x4 | x4 | x4 | x4 | x4 | x4 | x4 | %38
 x E/ x5/2 | x4 | x4 | x4 | x4 | x4 | x4 | x4 | x4 | x4 | x4 | x4 | x4 | x4 | x4 | x4 | x4 | x4 | %56
 x4 | x4 | x4 | x4 | x4 | x4 | x4 | x4 | x4 | x4 | x4 | x4 | x4 | x3 (e/c/) | x4 | x4 | x4 | x4 | %74
 x4 | x4 | x4 | x4 | x4 | x4 | x4 | x4 | x4 | x4 | x4 | x4 | x4 | x4 | x4 | x4 | x4 | x4 |] %92
V:3
 z | z4 |"_cresc." z4 |!<(! z4!<)! | z2 z E | [A,^D]4 | [^G,E]2 z!p! z/ [A,E]/ | %7
!<(! z/ [DF]/ z/ [A,^F]/ z/ [DG]/ z/!<)! [D^G]/ | z/ (A/ A2) z/ [^GB]/ | %9
"_cresc." z/ [Ac]/ z/ [E^c]/ z/ [Ad]/ z/ [A^d]/ |!f! z/ (e/ e2)!p! z/ [DF]/ | E2- E z/ [DF]/ | %12
 E2- E z/ [DF]/ |!<(! z/ [CE]/ z/ [D^G]/ z/!<)!!>(! [EA]/"_cresc." z/!>)! [Ac]/ | %14
!>(! B2- B!>)! z/ [Ac]/ |!>(! B2- B!>)! z/!sfz! [Ac]/ | %16
 B-!>(![GB]/[^FA]/- [FA]/[EG]/ z/!>)!!p! [=FA]/ | G2 z [A,^D] |!>(! ([EG] B2!>)! ^F/>G/ | %19
 E2-) E z |!mf! !arpeggio![G,CE]2 z [CEA] | G^F- F2 | !arpeggio![B,D^F]2 z [B,FB] | %23
 z/ [E^G][EA][EB][Ec]/ |"^animato.""_cresc." [=FA]/ z/ [^GB]/ z/ [Ac]/ z/ [Ad]/ z/ | %25
 (ea) z!>(! z/ [DF]/!>)! | z/ [CE]/ z/ [D^G]/ z/ [EA]/!>(! z/"_cresc." [DF]/!>)! | %27
 x z/!>(! [^Gd][Ac]/!>)! z/ [DF]/ | x/ [CE]/ z/!>(! [^Gdf]!>)![Ace][EB]/ | [EAc] z!p! z z/ ^G/ | %30
!f! (f/!>(!e/d/c/ c/B/!>)!A/^G/ |!p! A2-) A x |!pp! [B,E^G] z [^A,E] z | [^F,B,^D]2 z2 | %34
!f! [EBe] z z2 | z!>(! B/>G/^F!>)!E |!sfz! [CEc] z z2 | %37
 z/!<(! [B,E]/ z/ [C^D]/ z/ E/ z/!<)! [D^F]/ |"_cresc." z/ [EG]/ z/ [B,E]/ z/ [E^A]/ z/ [^A,E]/ | %39
!f! z/ [B,^DB]/!>(! B3!>)! |!mf! [CEc]2- [CEc] z |!p! z/!<(! A/- A3!<)! |!sfz! .[DAd] z z2 | %43
!p! z/!<(! c/- c B2!<)! |!f!!>(! .[CGc]2 [G,DG]!>)! z | %45
!<(! z/ [A,C]/ z/ [A,^C]/ z/!<)! D/ z/ [CE]/ | z/"_cresc." [DF]/ z/ [A,D]/ z/ [DGd]/ z/ [D^G]/ | %47
!f! A>A- A/^G!>(!G/ | A2!>)! A!mf! (A |!<(! ^cd!<)!!>(!f!>)!^G | [^CEA]2) z!p! E- | E^D- D2 | %52
 [^G,B,E]2 z!p! z/ [A,E]/ | z/ [DF]/ z/ [A,^F]/ z/ [DG]/ z/ [D^G]/ | z/ (A/ A2) z/ [^GB]/ | %55
 z/ [Ac]/ z/ [E^c]/ z/ [Ad]/ z/ [A^d]/ | z/ e/- e2 z/!p! [DF]/ | E2- E z/ [DF]/ | %58
 E2- E"_cresc." z/ [DF]/ | z/ [CE]/ z/ [D^G]/ z/ [EA]/ z/ [Ac]/ | B2- B z/ [Ac]/ | %61
 B2- B z/!sfz! [Ac]/ | B-[GB]/[^FA]/- [FA]/[EG]/ z/!p! [=FA]/ | G2 z [A,^D] | %64
!>(! ([EG] B2 ^F/>!>)!G/ | E2-) E z |!mf! !arpeggio![G,CE]2 z [CEA] | G^F- F2 | %68
 !arpeggio![B,D^F]2 z [B,FB] | z/!<(! [E^G][EA][EB][Ec]/!<)! | %70
"_cresc." [=FA]/ z/ [^GB]/ z/ [Ac]/ z/ [Ad]/ z/ |!sfz! ((ea)) z z/!p! [DF]/ | %72
 z/ [CE]/ z/ [D^G]/ z/ [EA]/ z/"_cresc." [DF]/ | x z/!>(! [^Gd][Ac]/ z/!>)! [DF]/ | %74
 x/!>(! [CE]/ z/ [^Gdf]!>)![Ace][EB]/ | [EAc] z z2 |!<(! z/ [A,C]!<)!!>(![A,D][A,E]!>)![CE]/ | %77
!<(! z/ [DF]/ z/ [A,^F]/ z/ [DG]/ z/!<)! [D^G]/ | z/ A/- A2"_cresc." z/ [^GB]/ | %79
 z/ [Ac]/ z/ [E^c]/ z/ [Ad]/ z/ [A^d]/ |!f! z/ e/- e2 z/ [Ec]/ |!mf! [D=F_B]2- [DFB]B/A/ | %82
 [E^G]/ z/ z/ (F/ E-!p!E/D/) | [A,E] z z z/!f! [E-B]/ | [EAc] z/"_cresc." (E/ [DF]) z/ E/ | %85
 [A,EA]2 ([DF]F/)E/ | !arpeggio![CEA-] z A/_B/ z | z z/ [A,-DF]/[A,CE] z/!f! [Fdf]/- | %88
 [Fdf]/[Fdf]/ z/ [de^g]/- [deg]/[cea]/!mf! z/ [DF]/- | %89
!<(! [DF]/[CE]/ z/!<)!!>(! [^Gdf]/- [Gdf]/[Ace]/!>)!"_dim." z/ [B,D]/- | %90
 [B,D]/[A,C]/ z/!p! x/ x!f! .[^Ge^g] | .[Aea] z z2 |] %92
V:4
"^con   delicatezza." (E,, |!ped! !>!E,3) (E,, | !>!E,3) (E,,!ped-up! | ^G,,"^riten."A,,C,^D, | %4
"^col   canto." E,4) |!ped! (F,2 F,,2)!ped-up! | E,,2"^a tempo." z (C, | %7
D,/) z/ C,/ z/ B,,/ z/ E,/ z/ |!ped! A,,A,A,!ped-up! (E, |A,/) z/ =G,/ z/ F,/ z/ B,/ z/ | %10
!ped! E,E!ped-up!E x |!ped![I:staff -1] C/!>(![I:staff +1]E,-[E,-^G,]!ped-up![E,A,]/!>)! x | %12
!ped![I:staff -1] C/!>(![I:staff +1]E,-[E,-^G,]!ped-up![E,A,]/!>)! x | x/ z/ (B,C/) z/ (^F, | %14
!ped! E,^F,!ped-up!G,) (^D, |!ped!E,^F,!ped-up!G,) (^D,, |E,,) (B,,C,A,, | %17
 B,,) z"^poco rit." B,,, z | [E,G,] z [B,,A,]2 | E,,E,E, z |!ped! [C,E,]2 z!ped-up! C, | %21
 D,>E,D,C, |!ped! !arpeggio!^F,2 z!ped-up! D, | E,^F,^G,A, | F,/ z/ E,/ z/ A,/ z/ B,/ z/ | %25
!ped! [CE]2 z!ped-up! (!>!^G, | A,B,!ped!C) (^G,!ped-up! |A,B,C)!ped! (!>!^G,,!ped-up! | %28
A,,) (!>!B,C^G, |!ped! A,C,)!ped-up!.D,"^rit.".E, |!ped! C,,[C,E,A,]!ped-up! D,,[E,B,] | %31
!ped! A,,A,!ped-up!A,"^col  canto." ^F, | E, z C, z | B,,2 z2 |"^a tempo." [E,,B,,=G,] z z2 | %35
 z!ped! !arpeggio![E,,B,,G,][E,,B,,G,][E,,B,,G,]!ped-up! | [A,,E,A,] z z2 | %37
!ped! !>!G,,/ z/ (A,!ped-up!G,^F,) |!ped! (E,G,/)!ped-up! z/!ped! (C,, E,/)!ped-up! z/ | %39
 B,,,!ped! .[G,,^D,G,].[G,,D,G,].[G,,D,G,]!ped-up! |"^sostenuto." [C,G,]2- [C,G,] z | %41
 (F,G,"^a tempo."F,E,) | !arpeggio![D,,A,,F,] z z2 | (G,A,G,F,) | %44
!ped! [E,G,] z!ped-up! [B,,,B,,] z | [A,,,A,,] (G,F,E, | %46
!ped! D,F,/)!ped-up!!ped! x/ (!>!_B,,,E,/)!ped-up! z/ | .A,,, (A,!ped! _B,,[I:staff -1]E)!ped-up! | %48
[I:staff +1] A,,A,A, z | z!ped!"^ritard." (A, !>!_B,2)!ped-up! | A,2 z2 | %51
"^col   canto."!ped! F,2 F,,2!ped-up! | E,,2 z"^a tempo." (C, |D,/) z/ C,/ z/ B,,/ z/ E,/ z/ | %54
!ped! A,,A,!ped-up!A, (E, | A,/) z/ =G,/ z/ F,/ z/ B,/ z/ |!ped! E,E!ped-up!E x | %57
[I:staff -1] C/!ped![I:staff +1]E,[E,^G,]!ped-up![E,A,]/ x | %58
[I:staff -1] C/!ped![I:staff +1]E,-[E,-^G,]!ped-up![E,A,]/ x | %59
 x/!ped! z/ (!>!B,!ped-up!C/) z/ (^D, |!ped! E,^F,!ped-up!G,) (^D, |E,^F,G,) (!>!^D,, | %62
E,,) (B,,C,A,, | B,,)"^poco rit." z!ped! B,,, z!ped-up! | [E,G,] z [B,,A,]2 | E,,E,E, z | %66
!ped! [C,E,]2 z!ped-up! C, | D,>E,D,C, | !arpeggio!^F,2 z (D, | (E,)^F,^G,A, | %70
 =F,/)"^animato." z/ E,/ z/ A,/ z/ B,/ z/ | [CE]2 z (^G, | A,B,C) (^G, |A,B,C) ((!>!^G,, | %74
A,,)) (B,C^G, | A,)C,"^rit.".D,.E, | (A,,B,,C,A,, | D,) C,/ z/ B,,/ z/ E,/ z/ | A,,A,A, (E, | %79
A,) =G,/ z/ F,/ z/ B,/ z/ |!ped! (E,^F,!ped-up!^G,A,) |!ped! (D,^C,!ped-up!D,=F,) | E, (D,=C,=B,, | %83
C,)!ped! z z!ped-up! z/ (^G,,/ |!ped! A,,)([C,E,A,]!ped-up!D,[E,^G,]) | %85
!ped! C,,([C,E,A,]!ped-up![D,F,][E,B,D]) |"^col   canto."!ped! C,,[C,E,A,]!ped-up! D,, E,, | %87
 A,,,A,,A,,!ped! (!>!^G,!ped-up! | A,B,C)!ped! (^G, |A,!ped-up!!ped!B,C)!ped-up! (F, | %90
E,) x/ [B,,D,]/- [B,,D,]/[A,,C,]/ .[E,B,D] | !arpeggio!.[A,,E,C].A,,, z2 |] %92
V:5
 x | x4 | x4 | x4 | x4 | x4 | x4 | x4 | x/ (C[DF][CE]/) x | x4 | x/ (^G[Ac][GB]/) x | x4 | x4 | %13
 x4 | G/B,-[B,-^D][B,E] x/ | G/B,-[B,-^D][B,E] x/ | G/-B,/- B,/ x5/2 | EB, x2 | x4 | %19
 z/ ([G,B,][A,C][G,B,]/) x | x4 | z/!>(! [A,D]/z/[A,D]/z/[A,D]/!>)! z | x4 | x4 | x4 | A2 x2 | x4 | %27
 z/ [CE-]/ E2 x | x4 | x4 | AE FD | z/ [A,C]/ z/ [B,D]/ z/ [CE]/ z/ [B,^DA]/ | x4 | x4 | x4 | %35
 x B,- B,2 | x4 | x5/2 B,/-B, | x4 | x [B,F][B,F][B,F] | x4 | %41
 x/ [CFA]/ z/ [CF]/ z/ [CF]/ z/ [^CG]/ | x4 | x/ [DG]/z/[DG]/z/[DG]/z/[DG]/ | x4 | x5/2 A,/-A, | %46
 x4 | z/ [^CE]/-[CE] D2 | z/ ([^CE][D^F]/[CE]) z | x [D=F]2 [DE] | x4 | A,4 | x4 | x4 | %54
 x/ (C[DF][CE]/) x | x4 | x/ (^G[Ac][GB]/) x | x4 | x4 | x4 | G/B,-[B,-^D][B,E] x/ | %61
 G/B,-[B,-^D][B,E] x/ | G/-B,/- B,/ x5/2 | EB, x2 | x4 | z/ [G,B,][A,C][G,B,]/ x | x4 | %67
 z/ [A,D]/z/[A,D]/z/[A,D]/ z | x4 | x4 | x4 | A2 x2 | x4 | z/ !^![CE-]/ E2 x | x4 | x4 | x4 | x4 | %78
 x/ (C[DF][CE]/) x | x4 | x/ [E-^G][E-A][EB]/ x | x4 | x4 | x4 | x4 | x4 | !arpeggio!A, x F x | %87
 x4 | x4 | x4 | x4 | x4 |] %92
V:6
 x | x4 | x4 | x4 | x4 | x4 | x4 | x4 | x4 | x4 | x3 (^G, |A,/) z/ B,,C, (^G, |A,/) z/ (B,,C,^G,, | %13
A,,/) x7/2 | x4 | x4 | x4 | x4 | x4 | x4 | x4 | x4 | !arpeggio!B,,2 x2 | x4 | x4 | x4 | x4 | x4 | %28
 x4 | x4 | x4 | x4 | x4 | x4 | x4 | x4 | x4 | x4 | x4 | x4 | x4 | x4 | x4 | x4 | x4 | x/ E,/ x3 | %46
 x4 | x4 | x4 | x4 | x4 | x4 | x4 | x4 | x4 | x4 | x3 (^G, |A,/) z/ (B,,C,) (!>!^G, | %58
A,/) z/ (B,,C,!>!^G,, |A,,/) x7/2 | x4 | x4 | x4 | x4 | x4 | x4 | x4 | x4 | !arpeggio!B,,2 x2 | %69
 x4 | x4 | x4 | x4 | x4 | x4 | x4 | x4 | x4 | x4 | x4 | x4 | x4 | x4 | x4 | x4 | x4 | x4 | x4 | %88
 x4 | x4 | x (F,,E,,) x | x4 |] %92
V:7
 x | x4 | x4 | x4 | x4 | x4 | x4 | x4 | x4 | x4 | x4 | x4 | x4 | x4 | x4 | x4 | x4 | x4 | x4 | x4 | %20
 x4 | x4 | x4 | x4 | x4 | x4 | x4 | x4 | x4 | x4 | x4 | x4 | x4 | x4 | x4 | x4 | x4 | x4 | x4 | %39
 x4 | x4 | x4 | x4 | x4 | x4 | x4 | x4 | x4 | x4 | x4 | x4 | x2 =CB, | x4 | x4 | x4 | x4 | x4 | %57
 x4 | x4 | x4 | x4 | x4 | x4 | x4 | x4 | x4 | x4 | x4 | x4 | x4 | x4 | x4 | x4 | x4 | x4 | x4 | %76
 x4 | x4 | x4 | x4 | x4 | x4 | x4 | x4 | x4 | x4 | x4 | x4 | x4 | x4 | x4 | x4 |] %92

